build/img/close_default.svg

<svg width="24" height="24" viewBox="0 0 24 24" fill="none" xmlns="http://www.w3.org/2000/svg">
<path d="M12 24C18.6274 24 24 18.6274 24 12C24 5.37258 18.6274 0 12 0C5.37258 0 0 5.37258 0 12C0 18.6274 5.37258 24 12 24Z" fill="#F6F6F6"/>
<path d="M7 8.179L10.72 11.899L7 15.619L8.179 16.798L13.078 11.899L8.179 7L7 8.179Z" fill="#888888"/>
<path d="M16.838 15.619L13.118 11.899L16.838 8.179L15.659 7L10.76 11.899L15.659 16.798L16.838 15.619Z" fill="#888888"/>
</svg>

<svg width="24" height="24" viewBox="0 0 24 24" fill="none" xmlns="http://www.w3.org/2000/svg"><path d="M12 24c6.627 0 12-5.373 12-12S18.627 0 12 0 0 5.373 0 12s5.373 12 12 12z" fill="#F6F6F6"/><path d="M7 8.179l3.72 3.72L7 15.619l1.179 1.179 4.899-4.899L8.179 7 7 8.179z" fill="#888"/><path d="M16.838 15.619l-3.72-3.72 3.72-3.72L15.659 7l-4.899 4.899 4.899 4.899 1.179-1.179z" fill="#888"/></svg>
